packages/clerk-js/src/v4/icons/exclamation-triangle.svg

<svg viewBox="0 0 25 23" fill="none" xmlns="http://www.w3.org/2000/svg">
    <path fill-rule="evenodd" clip-rule="evenodd"
          d="M9.46227 1.95831C10.6856 -0.216572 13.817 -0.216573 15.0404 1.95831L23.9688 17.8312C25.1687 19.9643 23.6272 22.6 21.1798 22.6H3.32282C0.875378 22.6 -0.666107 19.9643 0.533781 17.8312L9.46227 1.95831ZM13.8512 17.8002C13.8512 18.6838 13.1348 19.4002 12.2512 19.4002C11.3675 19.4002 10.6512 18.6838 10.6512 17.8002C10.6512 16.9165 11.3675 16.2002 12.2512 16.2002C13.1348 16.2002 13.8512 16.9165 13.8512 17.8002ZM12.2512 5.0002C11.3675 5.0002 10.6512 5.71654 10.6512 6.60019V11.4002C10.6512 12.2838 11.3675 13.0002 12.2512 13.0002C13.1348 13.0002 13.8512 12.2838 13.8512 11.4002V6.60019C13.8512 5.71654 13.1348 5.0002 12.2512 5.0002Z"
          fill="currentColor"/>
</svg>

<svg viewBox="0 0 25 23" fill="none" xmlns="http://www.w3.org/2000/svg"><path fill-rule="evenodd" clip-rule="evenodd" d="M9.462 1.958c1.224-2.175 4.355-2.175 5.578 0l8.929 15.873c1.2 2.133-.342 4.769-2.79 4.769H3.324c-2.448 0-3.99-2.636-2.79-4.769l8.93-15.873Zm4.39 15.842a1.6 1.6 0 1 1-3.2 0 1.6 1.6 0 0 1 3.2 0ZM12.251 5a1.6 1.6 0 0 0-1.6 1.6v4.8a1.6 1.6 0 0 0 3.2 0V6.6a1.6 1.6 0 0 0-1.6-1.6Z" fill="currentColor"/></svg>
